ecoconception/src/assets/svg/logo-lemonde.svg

<svg width="204" height="45" viewBox="0 0 204 45" fill="none" xmlns="http://www.w3.org/2000/svg">
<path fill-rule="evenodd" clip-rule="evenodd" d="M24.4985 7.34519C24.3246 6.52181 22.9205 4.63034 21.3472 4.63034C20.9947 4.63034 20.7625 4.68987 20.5304 4.75137C22.0469 5.34196 23.2135 6.871 23.566 7.9371L24.4396 7.40603V7.34519H24.4985ZM34.4187 43.1844L28.7503 39.3466C28.0685 38.885 27.2755 38.0127 27.2755 36.3851V22.4868L26.7081 22.8373L26.4825 22.9537V36.7898C26.4825 37.9538 27.1042 39.174 27.9527 39.7553L33.682 43.65L34.4187 43.1844ZM9.93291 29.2432C10.044 26.8854 9.54536 24.0092 9.04273 21.2474C8.54011 18.4301 8.09105 15.5532 8.14793 13.0262C8.2048 11.4747 8.48389 9.97934 9.09696 8.59845C8.03748 10.265 7.36952 12.1618 7.31198 14.1756C7.14532 19.0643 9.43227 25.445 9.20741 30.3946C9.16136 31.0661 9.10646 31.737 9.04273 32.4071L9.15252 32.2907C9.60025 31.6571 9.87868 30.6816 9.93291 29.2432ZM17.885 43.1011C17.0345 41.3882 14.9962 40.3433 12.614 40.3433C12.3852 40.3962 12.1584 40.3962 11.9328 40.3962C14.2581 40.7844 16.2409 42.0509 16.9796 43.65L17.885 43.1011ZM38.3868 22.6521L36.4028 20.5027L36.463 21.9346L37.5099 23.1481L38.3868 22.6521ZM92.7445 10.5825L87.9881 7.7539L88.7024 7.27575L93.2789 9.98265C93.1003 10.1619 92.9218 10.3411 92.7445 10.5825ZM93.8754 43.65L91.9231 42.2731C90.6401 41.3571 89.9722 39.8095 89.9722 38.0914V18.9559C89.9722 16.3204 90.531 14.4864 91.4212 13.2279C90.9199 14.4864 90.6963 16.034 90.6963 17.8111L90.7512 37.4022C90.7512 39.5225 91.3663 40.8981 92.8166 41.9292L94.6016 43.1923L93.8761 43.65H93.8754ZM78.0678 43.4754C78.0678 43.4754 77.884 43.5911 77.7623 43.65H77.2729V11.6631C77.2729 10.1162 77.1506 10.1162 76.1711 9.42646L74.7611 8.39475L75.6824 7.9371C76.4165 8.5085 77.5196 9.3127 77.5196 9.3709C77.9481 9.77102 78.0678 9.99919 78.0678 10.9171V43.5316V43.4754ZM54.6871 3.96899C54.1991 5.2454 54.2599 6.46493 54.871 7.46423C55.4239 8.35044 56.4007 8.96153 57.566 9.23995C53.9544 9.51574 52.3658 6.91002 54.6871 3.96899ZM63.1888 31.7457C63.4236 30.8337 63.5195 29.8079 63.5195 28.7266V12.1565C63.5195 10.1645 63.4236 9.939 62.8568 9.3127H62.9527C63.7542 9.14075 64.1795 9.3127 64.1795 11.0183V27.6453C64.1795 29.5818 63.8978 30.8337 63.1888 31.7457ZM64.6094 43.6507C64.1365 42.0859 62.7073 40.7626 60.2114 40.4008C60.5705 40.3433 60.9257 40.3433 61.2841 40.3433C64.3713 40.4001 65.2641 42.3247 65.4433 42.9271L65.5022 43.1057L64.6094 43.6507ZM149.494 43.2439L147.791 42.2036C146.254 41.2751 145.458 39.832 145.458 37.633V21.9571C145.458 21.0325 145.403 21.0907 145.059 20.8004C145.059 20.8004 143.866 19.8163 143.07 19.18L142.219 19.6463L143.866 20.9161C144.777 21.6085 144.664 21.6667 144.664 23.0562V38.2679C144.664 40.3505 145.516 41.7962 146.709 42.494L148.755 43.65L149.494 43.2439ZM133.621 43.531V20.0438L132.732 19.18L131.637 19.7005L132.662 20.6807V43.65H133.215C133.349 43.5905 133.554 43.531 133.554 43.531H133.621ZM115.103 43.2433L108.491 39.2176C107.167 38.4022 106.653 37.4122 106.653 35.6622V22.4868L106.077 22.7785L105.845 22.8942V36.3037C105.845 37.8784 106.534 39.0417 107.743 39.7447L114.353 43.65L115.103 43.2433ZM118.41 35.7138V22.6488C118.41 21.961 118.192 21.7296 117.693 21.4452L115.103 19.8414V20.7012L116.592 21.5589C117.693 22.1885 117.693 22.3043 117.693 23.5099L117.64 35.2555L118.41 35.7138ZM170.657 12.1182V11.9495C170.657 10.3728 169.746 8.74196 168.347 7.89543C167.812 7.55682 167.332 7.27575 167.332 7.27575L166.689 7.72745L167.062 7.94966C168.884 9.02303 169.909 10.3728 169.909 12.5665L170.657 12.1182ZM191.82 43.1844L186.136 39.3466C185.463 38.885 184.674 38.0127 184.674 36.3851V22.4868L184.11 22.8373L183.884 22.9537V36.6132C183.884 38.1264 184.449 39.174 185.404 39.8142L191.03 43.65L191.82 43.1844ZM167.35 43.8438L161.279 39.8711C159.823 38.9399 159.54 38.0616 159.54 36.3646V23.8095L159.089 24.0449L158.753 24.2182V36.6582C158.753 38.6476 159.372 39.5238 160.326 40.1647L166.617 44.3114L167.35 43.8438ZM195.127 22.6515L193.143 20.5027L193.202 21.9346L194.25 23.1481L195.127 22.6515ZM171.98 36.3752V17.8573L170.657 18.3851V35.8474L171.98 36.3752Z" fill="#8F98A9"/>
<path fill-rule="evenodd" clip-rule="evenodd" d="M25.9482 38.1546L25.259 36.7717L23.476 37.9212C22.1527 36.3068 20.0192 34.4074 14.9512 34.4074C9.59298 34.3505 3.02379 38.6103 0.0285339 42.2973L0.547694 42.9884C4.6355 40.2802 8.84367 39.0746 12.5307 39.0746C15.5266 39.0746 18.0027 40.5136 19.0384 42.6432L25.9482 38.1546ZM31.4823 6.59035C30.444 4.97798 27.6796 1.98471 22.2063 1.98471C15.641 1.9285 9.88265 7.05264 9.65118 13.2733C9.47658 18.2262 11.8396 24.6181 11.6075 29.571C11.4944 31.2422 11.1458 32.4511 10.4574 33.3704L11.1458 34.1792L15.1801 31.2428C17.1403 29.7978 18.2335 28.0148 18.1753 24.9071C18.1178 21.0475 16.3308 15.1158 16.3308 10.5677C16.3308 6.64988 17.8301 3.71282 21.2288 3.71282C23.5336 3.71282 25.3768 6.07384 25.6631 7.39852C25.7808 8.03011 25.6631 8.31912 25.0878 8.72189L23.476 9.81973V11.6027L31.483 6.58969L31.4823 6.59035ZM46.323 21.9112L38.6038 13.3877L26.5619 20.4119V22.0243L29.04 20.6447V36.5978C29.04 37.5171 29.3865 38.0938 29.9612 38.4985L36.3565 42.6432L45.4025 37.4007L44.6531 35.7883L39.9285 38.3226L35.6667 35.3842C35.1476 35.0416 35.09 34.6951 35.09 33.9458V28.7628L46.323 21.9112ZM40.2737 23.1783L35.09 26.4024V17.9934L35.551 17.707L40.2737 23.1783ZM66.4413 42.8138C65.862 41.1909 64.1855 39.515 61.1743 39.3999C58.3358 39.3417 54.2844 40.4429 50.93 42.9884L50.2911 42.1769C52.7236 39.515 58.396 35.2361 64.3554 35.1759C67.4836 35.1759 69.6819 36.2188 71.2447 37.896L73.8511 36.449L74.6037 37.9549L66.4413 42.8138ZM102.152 7.34892C99.8911 8.67824 99.1385 10.4745 99.1385 13.2515V35.406C99.1385 36.7982 99.3144 37.4311 100.066 37.8385L100.819 38.2452L102.902 37.0257L103.598 38.4185L96.3615 42.7583L93.8748 41.0778C92.771 40.3265 92.3067 39.3999 92.3067 37.6057V17.8207C92.3067 14.1198 93.4681 12.1497 95.0884 10.9374L96.0149 10.243L89.1852 6.2491L86.1171 8.0989V36.9113C86.1171 39.3411 85.7699 39.6889 83.6252 40.7868C83.6252 40.7868 81.9513 41.5983 79.6399 42.8132H79.175V10.8799C79.175 9.31909 78.999 8.96923 78.1307 8.27614L75.7022 6.30994L72.7493 7.9858V24.5341C72.7493 27.4242 72.2863 29.5075 69.9716 30.9525L64.1848 34.5979L63.6028 33.6158C65.399 32.2249 65.8031 30.2561 65.8031 27.9434V11.0518C65.8031 8.56382 65.4592 7.58106 62.8515 8.044C61.8687 8.21595 60.3635 8.44809 59.4376 8.56382C55.6163 9.08563 53.9947 6.3655 56.6004 2.95293C56.6004 2.95293 57.238 2.08458 58.8576 0L60.134 0.870337L59.2048 2.20031C57.9906 3.939 58.974 4.86423 60.9442 4.16717C61.8687 3.8193 63.6623 3.12752 64.9354 2.60374C70.4319 0.46559 72.4596 3.99455 72.7493 6.07715L79.5804 1.97016L85.4796 6.48057L92.771 1.97016L98.3872 5.15324C100.296 6.2491 101.222 5.78681 102.554 5.09173L103.655 4.51438L104.522 5.96207L102.152 7.34892ZM128.25 35.281L127.732 34.0212L125.719 35.0502V19.5283C125.719 18.7301 125.434 18.0978 124.628 17.6369L117.207 13.2277L105.183 20.2148V21.8775L107.659 20.4456V35.6243C107.659 36.9973 108.001 37.5151 108.868 38.0296L116.172 42.3271L128.25 35.281ZM156.769 38.5461L156.194 37.2281L154.064 38.4337L153.32 37.9734C152.514 37.5151 152.34 36.9397 152.34 35.5661V19.1282C152.34 17.8095 152.053 17.2394 151.246 16.6654L146.816 13.3421L139.971 17.2394L136.349 13.3421L129.1 17.7546L130.079 18.8974L132.551 17.412L134.334 19.4153V42.2146H134.795C137.671 40.9495 138.591 40.5507 138.591 40.5507C139.972 39.9766 140.376 39.519 140.376 37.9172V18.8968L142.736 17.5238L145.496 19.7016C146.242 20.3299 146.356 20.8458 146.356 21.8179L146.414 37.4007C146.414 39.1169 146.933 40.0917 148.081 40.7795L150.5 42.2146L156.769 38.5461ZM119.679 37.6884L119.335 37.7459L114.616 34.9947C113.814 34.5364 113.637 34.0212 113.637 32.9881L113.698 17.9246L114.041 17.8088L118.587 20.4456C119.505 20.9615 119.679 21.4198 119.679 22.392V37.6884ZM172.724 38.2981L172.377 38.3563L168.277 35.6884C167.472 35.1693 167.183 34.7626 167.183 33.7236V18.955L172.319 15.8235L172.724 16.0563V38.2981ZM181.267 35.9232L180.749 34.5906L178.669 35.6884V11.1358C178.669 7.54534 177.054 5.23062 174.399 3.60767L171.802 1.98471L163.659 6.73255L165.275 7.48714L167.934 6.04011L169.662 7.02354C171.511 8.06649 172.724 10.1537 172.724 12.2945V13.2191L158.753 21.3266V22.892L161.119 21.6176V36.3286C161.119 37.5997 161.465 38.1235 162.273 38.644L169.201 42.9884L181.267 35.9232ZM203.724 22.1394L195.929 13.5683L183.864 20.6315V22.2531L186.346 20.8656V36.9086C186.346 37.8332 186.693 38.4132 187.269 38.8199L193.679 42.9884L202.741 37.7161L202.051 36.0952L197.316 38.644L193.043 35.6878C192.464 35.2844 192.408 34.9953 192.408 34.2427V29.03L203.724 22.1394ZM197.605 23.4138L192.409 26.6564V18.1997L192.929 17.9113L197.605 23.4138Z" fill="#1A171B"/>
</svg>

<svg xmlns="http://www.w3.org/2000/svg" width="204" height="45" fill="none"><path fill="#8F98A9" fill-rule="evenodd" d="M24.498 7.345c-.173-.823-1.578-2.715-3.15-2.715-.353 0-.585.06-.818.121 1.517.591 2.683 2.12 3.036 3.186l.874-.531v-.06h.058Zm9.92 35.84-5.668-3.838c-.681-.462-1.474-1.334-1.474-2.962V22.487l-.568.35-.225.117V36.79c0 1.164.621 2.384 1.47 2.965l5.729 3.895.737-.466ZM9.934 29.242c.111-2.358-.388-5.234-.89-7.996-.503-2.817-.952-5.694-.895-8.22.057-1.552.336-3.048.949-4.429-1.06 1.667-1.727 3.564-1.785 5.578-.167 4.888 2.12 11.269 1.895 16.219-.046.671-.1 1.342-.164 2.012l.11-.116c.447-.634.726-1.61.78-3.048Zm7.952 13.858c-.85-1.713-2.889-2.758-5.271-2.758-.229.053-.456.053-.681.053 2.325.388 4.308 1.655 5.047 3.254l.905-.549Zm20.502-20.449-1.984-2.15.06 1.433 1.047 1.213.877-.496Zm54.358-12.07-4.757-2.828.714-.478 4.577 2.707c-.179.179-.357.358-.534.6Zm1.13 33.068-1.952-1.377c-1.283-.916-1.95-2.464-1.95-4.182V18.956c0-2.636.558-4.47 1.448-5.728-.501 1.258-.725 2.806-.725 4.583l.055 19.591c0 2.12.615 3.496 2.066 4.527l1.785 1.263-.726.458Zm-15.807-.175s-.184.116-.306.175h-.49V11.663c0-1.547-.121-1.547-1.1-2.237l-1.41-1.031.92-.458c.734.571 1.838 1.376 1.838 1.434.428.4.548.628.548 1.546v32.615-.057ZM54.688 3.97c-.489 1.276-.428 2.496.183 3.495.553.886 1.53 1.498 2.695 1.776-3.612.276-5.2-2.33-2.879-5.271Zm8.5 27.777c.236-.912.331-1.938.331-3.02v-16.57c0-1.992-.095-2.217-.662-2.843h.096c.801-.172 1.227 0 1.227 1.705v16.627c0 1.937-.282 3.189-.991 4.1ZM64.61 43.65c-.472-1.565-1.902-2.888-4.398-3.25.36-.058.715-.058 1.073-.058 3.087.057 3.98 1.982 4.16 2.584l.058.179-.893.545Zm84.885-.407-1.703-1.04c-1.537-.929-2.333-2.372-2.333-4.571V21.957c0-.925-.055-.866-.399-1.157 0 0-1.193-.984-1.989-1.62l-.851.466 1.647 1.27c.911.692.798.75.798 2.14v15.212c0 2.082.852 3.528 2.045 4.226l2.046 1.156.739-.406Zm-15.873.287V20.044l-.889-.864-1.095.52 1.025.98v22.97h.553c.134-.06.339-.119.339-.119h.067Zm-18.518-.288-6.612-4.025c-1.324-.816-1.838-1.806-1.838-3.556V22.487l-.576.292-.232.115v13.41c0 1.574.689 2.738 1.898 3.44l6.61 3.906.75-.407Zm3.307-7.53V22.65c0-.688-.218-.92-.717-1.204l-2.59-1.604v.86l1.489.858c1.101.63 1.101.745 1.101 1.95l-.053 11.746.77.459Zm52.247-23.595v-.168c0-1.577-.911-3.208-2.31-4.055-.535-.338-1.015-.62-1.015-.62l-.643.452.373.223c1.822 1.073 2.847 2.423 2.847 4.616l.748-.448Zm21.163 31.066-5.684-3.837c-.673-.462-1.462-1.334-1.462-2.962V22.487l-.564.35-.226.117v13.66c0 1.512.565 2.56 1.52 3.2l5.626 3.836.79-.466Zm-24.47.66-6.071-3.973c-1.456-.931-1.739-1.81-1.739-3.506V23.809l-.451.236-.336.173v12.44c0 1.99.619 2.866 1.573 3.507l6.291 4.146.733-.467Zm27.777-21.193-1.984-2.148.059 1.432 1.048 1.213.877-.497ZM171.98 36.376V17.857l-1.323.528v17.462l1.323.528Z" clip-rule="evenodd"/><path fill="#1A171B" fill-rule="evenodd" d="m25.948 38.155-.689-1.383-1.783 1.15c-1.323-1.615-3.457-3.515-8.525-3.515C9.593 34.351 3.024 38.61.03 42.297l.519.691c4.088-2.708 8.296-3.913 11.983-3.913 2.996 0 5.472 1.439 6.507 3.568l6.91-4.488ZM31.482 6.59c-1.038-1.612-3.802-4.605-9.276-4.605-6.565-.056-12.323 5.068-12.555 11.288-.174 4.953 2.189 11.345 1.957 16.298-.114 1.671-.462 2.88-1.15 3.8l.688.808 4.034-2.936c1.96-1.445 3.053-3.228 2.995-6.336-.057-3.86-1.844-9.791-1.844-14.34 0-3.917 1.5-6.854 4.898-6.854 2.305 0 4.148 2.36 4.434 3.686.118.631 0 .92-.575 1.323L23.476 9.82v1.783l8.007-5.013Zm14.841 15.321-7.72-8.523-12.041 7.024v1.612l2.478-1.38v15.954c0 .92.347 1.496.921 1.9l6.395 4.145 9.047-5.242-.75-1.613-4.724 2.535-4.262-2.939c-.52-.342-.577-.689-.577-1.438v-5.183l11.233-6.852Zm-6.05 1.267-5.183 3.224v-8.409l.461-.286 4.723 5.471Zm26.168 19.636c-.579-1.623-2.255-3.299-5.267-3.414-2.838-.058-6.89 1.043-10.244 3.588l-.639-.811c2.433-2.662 8.105-6.94 14.064-7.001 3.129 0 5.327 1.043 6.89 2.72l2.606-1.447.753 1.506-8.163 4.859Zm35.711-35.465c-2.26 1.33-3.014 3.126-3.014 5.902v22.155c0 1.392.176 2.025.928 2.433l.753.406 2.083-1.22.696 1.394-7.236 4.34-2.487-1.681c-1.104-.752-1.568-1.678-1.568-3.472V17.82c0-3.701 1.161-5.671 2.781-6.884l.927-.694-6.83-3.994-3.068 1.85V36.91c0 2.43-.347 2.778-2.492 3.876 0 0-1.674.811-3.985 2.026h-.465V10.88c0-1.56-.176-1.91-1.044-2.604L75.702 6.31 72.75 7.986v16.548c0 2.89-.463 4.974-2.777 6.419l-5.787 3.645-.582-.982c1.796-1.391 2.2-3.36 2.2-5.673V11.052c0-2.488-.344-3.47-2.951-3.008a84.54 84.54 0 0 1-3.414.52c-3.822.522-5.443-2.199-2.838-5.611 0 0 .638-.868 2.258-2.953l1.276.87-.93 1.33c-1.213 1.739-.23 2.664 1.74 1.967.925-.348 2.718-1.04 3.991-1.563 5.497-2.138 7.525 1.39 7.814 3.473L79.58 1.97l5.9 4.51 7.291-4.51 5.616 3.183c1.909 1.096 2.835.634 4.167-.061l1.101-.578.867 1.448-2.37 1.387ZM128.25 35.28l-.518-1.26-2.013 1.03V19.527c0-.798-.285-1.43-1.091-1.891l-7.421-4.41-12.024 6.988v1.663l2.476-1.432v15.178c0 1.373.342 1.891 1.209 2.406l7.304 4.297 12.078-7.046Zm28.519 3.265-.575-1.318-2.13 1.206-.744-.46c-.806-.459-.98-1.034-.98-2.408V19.128c0-1.319-.287-1.889-1.094-2.463l-4.43-3.323-6.845 3.897-3.622-3.897-7.249 4.413.979 1.142 2.472-1.485 1.783 2.003v22.8h.461c2.876-1.266 3.796-1.664 3.796-1.664 1.381-.574 1.785-1.032 1.785-2.634v-19.02l2.36-1.373 2.76 2.178c.746.628.86 1.144.86 2.116l.058 15.583c0 1.716.519 2.69 1.667 3.378l2.419 1.436 6.269-3.669Zm-37.09-.858-.344.058-4.719-2.751c-.802-.459-.979-.974-.979-2.007l.061-15.063.343-.116 4.546 2.637c.918.515 1.092.974 1.092 1.946v15.296Zm53.045.61-.347.058-4.1-2.668c-.805-.519-1.094-.925-1.094-1.964V18.955l5.136-3.131.405.232v22.242Zm8.543-2.375-.518-1.332-2.08 1.097V11.136c0-3.59-1.615-5.905-4.27-7.528l-2.597-1.623-8.143 4.748 1.616.754 2.659-1.447 1.728.984c1.849 1.042 3.062 3.13 3.062 5.27v.925l-13.971 8.108v1.565l2.366-1.274v14.71c0 1.272.346 1.795 1.154 2.316l6.928 4.344 12.066-7.065Zm22.457-13.784-7.795-8.57-12.065 7.062v1.622l2.482-1.387v16.043c0 .924.347 1.504.923 1.91l6.41 4.17 9.062-5.273-.69-1.62-4.735 2.548-4.273-2.956c-.579-.404-.635-.693-.635-1.445V29.03l11.316-6.89Zm-6.119 1.275-5.196 3.242V18.2l.52-.289 4.676 5.503Z" clip-rule="evenodd"/></svg>
